X: 35
T: Miss Mary Abercromby's Strathspey
R: strathspey
Q: "Slow"
B: William Shepherd "1st Collection" 1793 p.3 #5
F: http://imslp.org/wiki/File:PMLP73094-Shepherd_Collections_HMT.pdf
C: William Shepherd (17??-1812)
Z: 2012 John Chambers <jc:trillian.mit.edu>
M: C
L: 1/16
K: G
dc |\
[B3G3]d[A3F3]d [E3C3]B[D3B,3]G | A,2AB cBAG TF3A Aedc & x8 x4 xcBA |\
[B3G3]d[A3F3]d [E3C3]B[D3B,3]G | A,2ed cBAG D2[G2B,2] [G2B,2] :|
Bc |\
Td3ed3B Tg3ag3B | Tc3A cBAG TF2A2 A2Bc |\
Td3ed3B c3aB3G | E2.c.B .A.G.F.E D2[G2B,2] [G2B,2] ||
Bc |\
Td3ed3B c3aB3g | Tc3A cBAG TF2A2 A2Bc |\
Td3BTc3A TB3GD3B, | C3G ABcA B2TG2 G2 |]
